X: 27697
T: Morna
R: reel
M: 4/4
K: Bminor
BA G2 AccA|B/c/d cA edcz|BA G2 AccA|B/c/d eA Bzed|
BA G2 AccA|B/c/d cA edcz|BA G2 AccA|B/c/d eA Bzzd|
Bdfg g f3|DFGB gfed|deed efff|fagf e2 gf|
Bdfg g f3|DFGB gfed|e2 ed ed d/d/d|cedc B3z|

